SVG_Azure_Grouped/Management/Automation Python Package.svg

<?xml version="1.0" encoding="UTF-8" standalone="no"?>
<!-- Generated by Microsoft Visio, SVG Export Automation Python Package.svg Page-1 -->

<svg
   xmlns:dc="http://purl.org/dc/elements/1.1/"
   xmlns:cc="http://creativecommons.org/ns#"
   xmlns:rdf="http://www.w3.org/1999/02/22-rdf-syntax-ns#"
   xmlns:svg="http://www.w3.org/2000/svg"
   xmlns="http://www.w3.org/2000/svg"
   xmlns:sodipodi="http://sodipodi.sourceforge.net/DTD/sodipodi-0.dtd"
   xmlns:inkscape="http://www.inkscape.org/namespaces/inkscape"
   width="0.78736222in"
   height="0.78731221in"
   viewBox="0 0 56.689915 56.686282"
   xml:space="preserve"
   class="st3"
   version="1.1"
   id="svg24"
   sodipodi:docname="Automation Python Package.svg"
   style="font-size:12px;overflow:visible;color-interpolation-filters:sRGB;fill:none;fill-rule:evenodd;stroke-linecap:square;stroke-miterlimit:3"
   inkscape:version="0.92.5 (2060ec1f9f, 2020-04-08)"><metadata
   id="metadata30"><rdf:RDF><cc:Work
       rdf:about=""><dc:format>image/svg+xml</dc:format><dc:type
         rdf:resource="http://purl.org/dc/dcmitype/StillImage" /></cc:Work></rdf:RDF></metadata><defs
   id="defs28" /><sodipodi:namedview
   pagecolor="#ffffff"
   bordercolor="#666666"
   borderopacity="1"
   objecttolerance="10"
   gridtolerance="10"
   guidetolerance="10"
   inkscape:pageopacity="0"
   inkscape:pageshadow="2"
   inkscape:window-width="640"
   inkscape:window-height="480"
   id="namedview26"
   showgrid="false"
   inkscape:zoom="1.7017044"
   inkscape:cx="37.795438"
   inkscape:cy="23.983789"
   inkscape:window-x="0"
   inkscape:window-y="0"
   inkscape:window-maximized="0"
   inkscape:current-layer="svg24" />
	<style
   type="text/css"
   id="style2">
	<![CDATA[
		.st1 {fill:#0072c6;stroke:none;stroke-linecap:butt;stroke-width:13.3043}
		.st2 {fill:#fcd116;stroke:none;stroke-linecap:butt;stroke-width:13.3043}
		.st3 {fill:none;fill-rule:evenodd;font-size:12px;overflow:visible;stroke-linecap:square;stroke-miterlimit:3}
	]]>
	</style>

	<g
   id="g22"
   transform="translate(-13.3043,-13.308)">
		<title
   id="title4">Page-1</title>
		<g
   id="group13099-1"
   transform="translate(13.3043,-34.0157)">
			<title
   id="title6">Automation Python Package.13099</title>
			<g
   id="group13100-2">
				<title
   id="title8">Sheet.13100</title>
				<g
   id="shape13101-3"
   transform="translate(0,-14.0463)">
					<title
   id="title10">Sheet.13101</title>
					<path
   d="m 28.14,61.37 c -14.39,0 -13.49,6.24 -13.49,6.24 l 0.01,6.46 H 28.4 v 1.94 H 9.21 c 0,0 -9.21,-1.04 -9.21,13.48 0,14.52 8.04,14.01 8.04,14.01 h 4.16 v -6.74 c 0,0 0.38,-8.28 8.55,-8.28 h 13.62 c 0,0 7.65,0.37 7.65,-7.16 V 68.89 c 0,0 1.16,-7.52 -13.88,-7.52 z m -7.57,4.34 c 1.37,0 2.47,1.11 2.47,2.48 0,1.36 -1.1,2.47 -2.47,2.47 -1.37,0 -2.47,-1.11 -2.47,-2.47 0,-1.37 1.1,-2.48 2.47,-2.48 z"
   class="st1"
   id="path12"
   inkscape:connector-curvature="0"
   style="fill:#0072c6;stroke:none;stroke-width:13.30430031;stroke-linecap:butt" />
				</g>
				<g
   id="shape13102-5"
   transform="translate(13.5099)">
					<title
   id="title15">Sheet.13102</title>
					<path
   d="m 15.04,104.01 c 14.39,0 13.49,-6.24 13.49,-6.24 L 28.52,91.31 H 14.78 v -1.94 h 19.19 c 0,0 9.21,1.04 9.21,-13.48 0,-14.52 -8.03,-14.01 -8.03,-14.01 h -4.17 v 6.74 c 0,0 -0.38,8.28 -8.54,8.28 H 8.81 c 0,0 -7.65,-0.37 -7.65,7.15 v 12.44 c 0,0 -1.16,7.52 13.88,7.52 z m 7.57,-4.35 a 2.46855,2.46861 0 0 1 -2.47,-2.47 c 0,-1.36 1.11,-2.47 2.47,-2.47 1.37,0 2.47,1.11 2.47,2.47 a 2.46855,2.46861 0 0 1 -2.47,2.47 z"
   class="st2"
   id="path17"
   inkscape:connector-curvature="0"
   style="fill:#fcd116;stroke:none;stroke-width:13.30430031;stroke-linecap:butt" />
				</g>
			</g>
		</g>
	</g>
</svg>

<?xml version="1.0" encoding="UTF-8" standalone="no"?>
<!DOCTYPE svg PUBLIC "-//W3C//DTD SVG 1.1//EN" "http://www.w3.org/Graphics/SVG/1.1/DTD/svg11.dtd">
<!-- Generated by Microsoft Visio, SVG Export Automation Python Package.svg Page-1 -->
<svg xmlns="http://www.w3.org/2000/svg" xmlns:xlink="http://www.w3.org/1999/xlink" xmlns:ev="http://www.w3.org/2001/xml-events"
		width="1.15697in" height="1.44463in" viewBox="0 0 83.3016 104.013" xml:space="preserve" color-interpolation-filters="sRGB"
		class="st3">
	<style type="text/css">
	<![CDATA[
		.st1 {fill:#0072c6;stroke:none;stroke-linecap:butt;stroke-width:13.3043}
		.st2 {fill:#fcd116;stroke:none;stroke-linecap:butt;stroke-width:13.3043}
		.st3 {fill:none;fill-rule:evenodd;font-size:12px;overflow:visible;stroke-linecap:square;stroke-miterlimit:3}
	]]>
	</style>

	<g>
		<title>Page-1</title>
		<g id="group12806-1" transform="translate(13.3043,-34.0157)">
			<title>Automation Python Package.12806</title>
			<g id="group12807-2">
				<title>Sheet.12807</title>
				<g id="shape12808-3" transform="translate(0,-14.0463)">
					<title>Sheet.12808</title>
					<path d="M28.14 61.37 C13.75 61.37 14.65 67.61 14.65 67.61 L14.66 74.07 L28.4 74.07 L28.4 76.01 L9.21 76.01 C9.21
								 76.01 0 74.97 0 89.49 C0 104.01 8.04 103.5 8.04 103.5 L12.2 103.5 L12.2 96.76 C12.2 96.76 12.58
								 88.48 20.75 88.48 L34.37 88.48 C34.37 88.48 42.02 88.85 42.02 81.32 L42.02 68.89 C42.02 68.89 43.18
								 61.37 28.14 61.37 ZM20.57 65.71 C21.94 65.71 23.04 66.82 23.04 68.19 C23.04 69.55 21.94 70.66 20.57
								 70.66 C19.2 70.66 18.1 69.55 18.1 68.19 C18.1 66.82 19.2 65.71 20.57 65.71 Z" class="st1"/>
				</g>
				<g id="shape12809-5" transform="translate(13.5099,2.70006E-13)">
					<title>Sheet.12809</title>
					<path d="M15.04 104.01 C29.43 104.01 28.53 97.77 28.53 97.77 L28.52 91.31 L14.78 91.31 L14.78 89.37 L33.97 89.37
								 C33.97 89.37 43.18 90.41 43.18 75.89 C43.18 61.37 35.15 61.88 35.15 61.88 L30.98 61.88 L30.98 68.62
								 C30.98 68.62 30.6 76.9 22.44 76.9 L8.81 76.9 C8.81 76.9 1.16 76.53 1.16 84.05 L1.16 96.49 C1.16
								 96.49 0 104.01 15.04 104.01 ZM22.61 99.66 A2.46855 2.46861 0 0 1 20.14 97.19 C20.14 95.83 21.25
								 94.72 22.61 94.72 C23.98 94.72 25.08 95.83 25.08 97.19 A2.46855 2.46861 0 0 1 22.61 99.66 Z"
							class="st2"/>
				</g>
			</g>
		</g>
	</g>
</svg>
